X: 2075
T: the MERRY LADS OF AYR
C:
Q: "Reel."
R: Reel.
%R: reel
B: James Kerr "Merry Melodies" v.2 p.11 #75
Z: 2016 John Chambers <jc:trillian.mit.edu>
M: C
L: 1/8
K: C
|:\
vec c/c/c c2cf | ecce fagf |\
edcB cGGc | AcGE D3 "^1st"f ::\
ue |\
cega gece | gega g3ue |\
cega gece |[1 fage d3 :|[2 dage defg |]
